icon/lg/auth0-icon.svg

<?xml version="1.0" encoding="UTF-8"?>
<svg viewBox="0 0 256 285" version="1.1" xmlns="http://www.w3.org/2000/svg" xmlns:xlink="http://www.w3.org/1999/xlink" height="1em" width="1em">
  <g>
    <path d="M220.412455,0 L127.996566,0 L156.558919,89.0059529 L248.974808,89.0059529 L174.20451,142.083429 L202.77514,231.594251 L202.77514,231.594251 C250.903243,196.534811 266.628676,143.473888 248.983084,89.0059529 L220.412455,0 Z M7.01832414,89.0059529 L99.4342131,89.0059529 L127.996566,0 L35.5889536,0 L7.01832414,89.0059529 L7.01832414,89.0059529 C-10.6355439,143.473888 5.09816596,196.534811 53.2262686,231.594251 L53.2262686,231.594251 L81.7886215,142.083429 L7.01832414,89.0059529 Z M53.2262686,231.594251 L127.996566,284.564132 L202.766863,231.594251 L127.996566,177.747056 L53.2262686,231.594251 Z" fill="#000000"/>
  </g>
</svg>

<svg width="256" height="285" xmlns="http://www.w3.org/2000/svg"><path d="M220.412 0h-92.415l28.562 89.006h92.416l-74.77 53.077 28.57 89.511c48.128-35.06 63.854-88.12 46.208-142.588L220.413 0ZM7.018 89.006h92.416L127.997 0H35.589L7.019 89.006c-17.655 54.468-1.92 107.529 46.207 142.588l28.563-89.51-74.77-53.078Zm46.208 142.588 74.77 52.97 74.77-52.97-74.77-53.847-74.77 53.847Z"/></svg>
